X: 4947
T: Breeches Buttoned On, The
R: polka
M: 2/4
K: Edorian
|:E>F GF|Ee dB|GB AF|EF D2|
E>F GF|Ee dB|GB AF|1 FE ED:|2 FE E2||
Be ef|gf ed|Bd d>e|dc BA|
Be ef|g/a/g/f/ ed|GB AF|1 FE E2:|2 FE ED||

